cartflows/admin-core/assets/images/plugins/suretriggers/trusted-brands/WhatsApp.svg

<svg width="102" height="24" viewBox="0 0 102 24" fill="none" xmlns="http://www.w3.org/2000/svg">
<path d="M99.6373 14.6207C99.5739 14.9442 99.4647 15.2266 99.3106 15.4691C99.1567 15.7114 98.9487 15.9135 98.7034 16.0593C98.4539 16.2104 98.1423 16.2863 97.77 16.2863C97.4079 16.2863 97.0993 16.2104 96.8441 16.0593C96.5883 15.9093 96.3839 15.7118 96.229 15.4691C96.0756 15.2266 95.9634 14.9442 95.8939 14.6207C95.8248 14.2969 95.7901 13.9666 95.7904 13.6354C95.7904 13.2893 95.823 12.9553 95.8864 12.6327C95.9502 12.3093 96.0595 12.0238 96.2136 11.7747C96.3677 11.5274 96.5703 11.3255 96.8202 11.1695C97.0696 11.0132 97.381 10.9341 97.754 10.9341C98.1157 10.9341 98.4214 11.0132 98.6712 11.1695C98.9218 11.3255 99.1262 11.5296 99.286 11.7832C99.4463 12.0368 99.5607 12.3254 99.6295 12.6482C99.6992 12.9725 99.734 13.3035 99.7334 13.6354C99.7334 13.9685 99.7011 14.2978 99.6373 14.6207ZM101.776 11.9934C101.627 11.4497 101.399 10.9724 101.09 10.5627C100.781 10.1534 100.393 9.82427 99.9251 9.57679C99.4563 9.32841 98.8972 9.20512 98.2482 9.20512C97.7379 9.20512 97.2694 9.307 96.8441 9.51185C96.4183 9.71688 96.0671 10.0456 95.7904 10.4982H95.7592V9.43083H93.6039V20.7159H95.8701V16.7551H95.9022C96.1789 17.1651 96.5334 17.4744 96.9639 17.684C97.3945 17.8941 97.8659 17.9998 98.3769 17.9998C98.9828 17.9998 99.5122 17.8804 99.965 17.6439C100.417 17.4071 100.795 17.0887 101.098 16.6897C101.402 16.2908 101.627 15.8332 101.776 15.3159C101.926 14.7983 102 14.2595 102 13.6992C102 13.1064 101.926 12.5381 101.776 11.9933M90.6036 14.6206C90.5392 14.9441 90.4297 15.2265 90.276 15.469C90.1216 15.7117 89.9192 15.9093 89.6685 16.0592C89.4192 16.2103 89.1074 16.2862 88.7353 16.2862C88.373 16.2862 88.0656 16.2103 87.8102 16.0592C87.5543 15.9093 87.3498 15.7117 87.1953 15.469C87.041 15.2265 86.9294 14.9441 86.86 14.6206C86.7908 14.2969 86.7562 13.9665 86.7568 13.6353C86.7568 13.2892 86.7878 12.9552 86.8516 12.6326C86.9163 12.3092 87.0247 12.0238 87.1795 11.7746C87.3327 11.5274 87.5356 11.3254 87.7864 11.1694C88.036 11.0132 88.3464 10.934 88.7196 10.934C89.0808 10.934 89.388 11.0132 89.6373 11.1694C89.8859 11.3236 90.0962 11.5335 90.2519 11.7831C90.4112 12.0367 90.5255 12.3253 90.5949 12.6481C90.6642 12.9725 90.6988 13.3035 90.6982 13.6353C90.6987 13.9661 90.667 14.2961 90.6036 14.6206ZM92.0554 10.5626C91.7473 10.1533 91.3585 9.82418 90.8901 9.5767C90.4216 9.32832 89.8635 9.20503 89.2147 9.20503C88.7032 9.20503 88.2354 9.30691 87.8102 9.51176C87.3833 9.71678 87.0332 10.0456 86.7568 10.4981H86.7242V9.43074H84.5687V20.7159H86.8368V16.7551H86.8675C87.1439 17.1651 87.4987 17.4744 87.93 17.684C88.3599 17.8941 88.8312 17.9998 89.342 17.9998C89.949 17.9998 90.478 17.8804 90.9301 17.6439C91.3824 17.4071 91.7603 17.0887 92.0636 16.6897C92.3672 16.2908 92.5923 15.8332 92.7424 15.3159C92.8903 14.7983 92.9657 14.2595 92.9657 13.6992C92.9657 13.1064 92.8903 12.5381 92.7425 11.9933C92.5923 11.4496 92.3641 10.9723 92.0554 10.5626ZM77.1474 13.3274L78.6319 9.09131H78.6634L80.1003 13.3274H77.1474ZM77.3864 6.24603L73.0771 17.7892H75.5991L76.4924 15.2186H80.7548L81.616 17.7892H84.2185L79.957 6.24612L77.3864 6.24603ZM72.8851 14.1276C72.738 13.8658 72.5366 13.6395 72.2946 13.4643C72.0499 13.2871 71.7699 13.1438 71.4566 13.0356C71.1394 12.9277 70.8169 12.8363 70.4904 12.7618C70.1777 12.6874 69.864 12.6172 69.5494 12.5511C69.2408 12.4861 68.9661 12.4135 68.7266 12.3331C68.4875 12.2521 68.294 12.1477 68.1448 12.0173C67.9953 11.8883 67.9216 11.7215 67.9216 11.5164C67.9216 11.3439 67.9631 11.2066 68.0487 11.104C68.1334 11.0026 68.24 10.9223 68.3602 10.8694C68.4828 10.8159 68.6175 10.781 68.767 10.7643C68.9048 10.7492 69.0433 10.7413 69.1819 10.7408C69.5865 10.7408 69.9377 10.8188 70.2363 10.975C70.5333 11.1312 70.6988 11.4304 70.7302 11.872H72.8851C72.8425 11.355 72.7124 10.9268 72.4941 10.5863C72.2762 10.2473 72.0018 9.97501 71.6722 9.77053C71.3428 9.56568 70.9675 9.42044 70.5464 9.33401C70.1261 9.24766 69.6929 9.20503 69.2466 9.20503C68.799 9.20503 68.3623 9.24549 67.9377 9.32543C67.5113 9.40671 67.1282 9.54743 66.7882 9.74632C66.4473 9.94566 66.1737 10.2173 65.9657 10.5626C65.7578 10.9074 65.6542 11.3499 65.6542 11.8883C65.6542 12.2547 65.7294 12.5652 65.8785 12.8182C66.0261 13.0718 66.224 13.2811 66.4678 13.4484C66.7133 13.6155 66.9928 13.7507 67.3065 13.8523C67.6241 13.9563 67.9461 14.0456 68.2717 14.1198C69.0813 14.2925 69.712 14.4643 70.1638 14.6374C70.6161 14.8095 70.8422 15.068 70.8422 15.4133C70.8422 15.6181 70.7948 15.7869 70.6988 15.9218C70.6045 16.0555 70.4818 16.166 70.3398 16.2453C70.1952 16.3265 70.0356 16.3862 69.8607 16.423C69.6851 16.461 69.5171 16.4801 69.3577 16.4801C69.1341 16.4801 68.9188 16.4528 68.7118 16.3992C68.5037 16.3451 68.3202 16.2615 68.1607 16.1482C68.0012 16.0353 67.8702 15.8901 67.7693 15.7117C67.669 15.5338 67.6173 15.3218 67.6173 15.0732H65.4627C65.4844 15.6337 65.6091 16.1001 65.8385 16.4718C66.0663 16.8436 66.3588 17.1424 66.7159 17.3692C67.0722 17.5951 67.4797 17.7572 67.9377 17.8545C68.3993 17.9518 68.8696 18.0005 69.341 17.9999C69.8049 18 70.2676 17.9541 70.7225 17.8628C71.1747 17.7709 71.5764 17.6118 71.9276 17.385C72.2796 17.1592 72.563 16.8602 72.7818 16.488C72.9994 16.1156 73.1083 15.655 73.1083 15.1052C73.1083 14.7167 73.034 14.3916 72.8851 14.1276ZM63.5159 6.92534H61.249V9.43083H59.8768V10.9665H61.249V15.8978C61.249 16.3187 61.3189 16.6577 61.4567 16.9162C61.5952 17.1746 61.7839 17.3752 62.0231 17.5149C62.2626 17.6551 62.5395 17.749 62.8535 17.7975C63.1665 17.8456 63.5005 17.8701 63.8509 17.8701C64.0752 17.8701 64.3033 17.8643 64.5378 17.8546C64.7714 17.8435 64.9841 17.8225 65.176 17.7893V16.0107C65.0652 16.0336 64.9531 16.0498 64.8403 16.0593C64.7183 16.0706 64.5959 16.0761 64.4734 16.076C64.0906 16.076 63.8349 16.0107 63.707 15.8815C63.58 15.7526 63.5159 15.4937 63.5159 15.1053V10.9665H65.176V9.43083H63.516L63.5159 6.92534ZM57.0194 14.5554C57.0194 14.6858 57.0063 14.8581 56.9794 15.0733C56.953 15.2895 56.881 15.5015 56.7641 15.7118C56.6469 15.922 56.4654 16.1032 56.2214 16.2534C55.9768 16.4048 55.6309 16.4801 55.1834 16.4801C55.0031 16.4801 54.8271 16.464 54.6569 16.431C54.4864 16.3992 54.3378 16.3422 54.21 16.2616C54.0826 16.1808 53.9812 16.0702 53.9066 15.93C53.8326 15.79 53.7949 15.6182 53.7949 15.4134C53.7949 15.198 53.8326 15.019 53.9066 14.8796C53.9786 14.743 54.0796 14.6242 54.2024 14.5319C54.3241 14.4404 54.468 14.3678 54.633 14.3133C54.7978 14.2596 54.9658 14.2164 55.136 14.1841C55.3164 14.1525 55.4978 14.1247 55.6782 14.1033C55.8521 14.083 56.0252 14.0561 56.1971 14.0227C56.354 13.9925 56.5088 13.9518 56.6604 13.901C56.804 13.8524 56.9234 13.7859 57.0194 13.6992V14.5554ZM59.2858 15.93V11.5815C59.2858 11.0741 59.1746 10.6677 58.9504 10.361C58.7274 10.0535 58.4399 9.81397 58.0892 9.64146C57.7374 9.46913 57.3488 9.35297 56.9233 9.2939C56.5056 9.23523 56.0843 9.20557 55.6626 9.20512C55.2054 9.20512 54.7499 9.25055 54.2984 9.34241C53.845 9.4339 53.4388 9.58781 53.0767 9.80295C52.7179 10.0153 52.4122 10.3085 52.1833 10.6597C51.9484 11.0154 51.8155 11.4628 51.7838 12.0018H54.0501C54.0927 11.5488 54.2423 11.2253 54.4978 11.0315C54.753 10.8374 55.1038 10.7409 55.5512 10.7409C55.7531 10.7409 55.9416 10.7545 56.1176 10.7811C56.2929 10.8084 56.4474 10.8615 56.5806 10.9428C56.7138 11.0235 56.8201 11.1364 56.8996 11.2824C56.9794 11.4277 57.0194 11.6249 57.0194 11.8721C57.0299 12.1099 56.9605 12.2894 56.8122 12.4136C56.6626 12.5382 56.4608 12.6327 56.2053 12.6966C55.9498 12.7619 55.6572 12.8104 55.3271 12.8418C54.9971 12.8748 54.6621 12.9187 54.322 12.9718C53.9806 13.026 53.6423 13.0989 53.3087 13.1902C52.9735 13.2812 52.6746 13.4194 52.4142 13.6018C52.1533 13.7859 51.9407 14.0308 51.7752 14.3381C51.6106 14.6454 51.5283 15.0365 51.5283 15.5101C51.5283 15.9411 51.6 16.3129 51.7437 16.6251C51.8873 16.9386 52.0867 17.1962 52.3424 17.4013C52.598 17.6061 52.8958 17.7573 53.2362 17.8546C53.5763 17.9512 53.9436 18 54.3379 18C54.8461 18.0001 55.3515 17.924 55.8376 17.774C56.3273 17.622 56.7535 17.3589 57.1153 16.9811C57.1259 17.1212 57.1444 17.2591 57.1707 17.3935C57.1974 17.5276 57.2323 17.6605 57.2748 17.7893H59.5736C59.4672 17.6179 59.3922 17.3589 59.3501 17.0134C59.3069 16.6688 59.2858 16.3083 59.2858 15.93ZM49.9479 10.1501C49.7248 9.85362 49.4187 9.62231 49.0308 9.45476C48.6419 9.28857 48.1443 9.20512 47.5381 9.20512C47.1124 9.20512 46.6763 9.31522 46.2288 9.5366C45.7821 9.75698 45.4148 10.1102 45.1277 10.5956H45.0797V6.24612H42.8131V17.7893H45.0797V13.4081C45.0797 12.5568 45.218 11.9455 45.4949 11.5731C45.7712 11.2017 46.2182 11.0155 46.8358 11.0155C47.3782 11.0155 47.756 11.1851 47.969 11.5251C48.1818 11.8642 48.2881 12.3792 48.2881 13.0687V17.7894H50.5549V12.6483C50.5549 12.1313 50.5093 11.66 50.4192 11.2334C50.3286 10.8085 50.1716 10.4469 49.9479 10.1501ZM37.9766 14.2006H37.945L35.9978 6.24621H33.6512L31.6717 14.1034H31.6399L29.8362 6.24612H27.3305L30.3471 17.7893H32.8853L34.7843 9.93202H34.8164L36.7478 17.7893H39.2379L42.3027 6.24612H39.8447L37.9766 14.2006ZM17.1985 14.3821C16.9051 14.2334 15.4622 13.5146 15.1933 13.4155C14.9242 13.3163 14.7286 13.2667 14.533 13.5641C14.3373 13.8617 13.775 14.531 13.6037 14.7291C13.4326 14.9277 13.2614 14.9525 12.9679 14.8037C12.6745 14.6549 11.7289 14.3411 10.6079 13.3288C9.73546 12.5409 9.14647 11.5676 8.97538 11.27C8.80411 10.9729 8.957 10.8121 9.10401 10.6638C9.23602 10.5308 9.39748 10.3166 9.54422 10.1434C9.69086 9.96959 9.73984 9.84576 9.83769 9.64733C9.93554 9.44916 9.88648 9.27539 9.81325 9.12681C9.73983 8.97796 9.15289 7.5154 8.9083 6.92055C8.67013 6.34123 8.42821 6.41945 8.24803 6.4106C8.07712 6.40166 7.88114 6.39985 7.68561 6.39985C7.48999 6.39985 7.17208 6.47454 6.90305 6.7717C6.6341 7.06922 5.87589 7.78817 5.87589 9.25064C5.87589 10.7132 6.92758 12.1263 7.07431 12.3248C7.22096 12.5229 9.14361 15.5245 12.0875 16.8116C12.7878 17.1177 13.3345 17.3005 13.7606 17.4375C14.4636 17.6636 15.1033 17.6317 15.6089 17.5553C16.1729 17.4699 17.3453 16.8363 17.5898 16.1422C17.8343 15.4481 17.8343 14.8533 17.761 14.7291C17.6877 14.6053 17.4921 14.531 17.1985 14.3821ZM11.8439 21.7852H11.8399C10.0883 21.7846 8.37006 21.3078 6.87129 20.4072L6.51484 20.1933L2.82011 21.1745L3.80632 17.5271L3.57413 17.1531C2.59693 15.5792 2.0809 13.7602 2.08161 11.8927C2.08375 6.44257 6.4631 2.00873 11.8478 2.00873C14.4551 2.00963 16.9062 3.03929 18.7493 4.90757C20.5925 6.77585 21.6069 9.2594 21.606 11.9006C21.6036 17.3509 17.2245 21.7852 11.8439 21.7852ZM11.8437 0C5.36994 0 0.101244 5.3347 0.0985678 11.8916C0.097765 13.9878 0.638594 16.0338 1.66629 17.837L0 24L6.22636 22.3464C7.9418 23.2937 9.87328 23.7928 11.8392 23.7935H11.8439C18.317 23.7935 23.5863 18.4585 23.5889 11.9012C23.5902 8.72389 22.3696 5.73572 20.1521 3.48791C17.9346 1.24001 14.9856 0.00153545 11.8437 0Z" fill="#4B5563"/>
</svg>

<svg width="102" height="24" fill="none" xmlns="http://www.w3.org/2000/svg"><path d="M99.637 14.62a2.44 2.44 0 0 1-.326.85 1.823 1.823 0 0 1-.608.59c-.25.15-.56.226-.933.226-.362 0-.67-.076-.926-.227a1.797 1.797 0 0 1-.615-.59 2.59 2.59 0 0 1-.335-.848 4.7 4.7 0 0 1-.104-.986c0-.346.033-.68.096-1.002.064-.324.174-.61.328-.858.154-.248.356-.45.606-.606.25-.156.561-.235.934-.235.362 0 .667.08.917.236.25.155.455.36.615.613.16.254.275.542.343.865.07.325.105.655.104.987 0 .334-.032.663-.096.986Zm2.139-2.627a4.185 4.185 0 0 0-.686-1.43 3.475 3.475 0 0 0-1.165-.986c-.469-.249-1.028-.372-1.677-.372-.51 0-.979.102-1.404.307-.426.205-.777.534-1.054.986h-.03V9.431h-2.156v11.285h2.266v-3.96h.032c.277.41.631.718 1.062.928.43.21.902.316 1.413.316.606 0 1.135-.12 1.588-.356.452-.237.83-.555 1.133-.954.304-.4.529-.857.678-1.374.15-.518.224-1.057.224-1.617 0-.593-.074-1.16-.224-1.706m-11.172 2.628a2.47 2.47 0 0 1-.328.848c-.154.243-.357.44-.608.59-.249.151-.56.227-.933.227-.362 0-.67-.076-.925-.227a1.791 1.791 0 0 1-.615-.59 2.568 2.568 0 0 1-.335-.848 4.673 4.673 0 0 1-.103-.986c0-.346.03-.68.095-1.002a2.56 2.56 0 0 1 .328-.858 1.86 1.86 0 0 1 .606-.606c.25-.156.56-.235.934-.235.36 0 .668.08.917.235.249.155.46.364.615.614.16.254.273.542.343.865.07.325.104.655.103.987 0 .331-.031.661-.094.986Zm1.451-4.058a3.463 3.463 0 0 0-1.165-.986c-.468-.249-1.026-.372-1.675-.372-.512 0-.98.102-1.405.307-.427.205-.777.534-1.053.986h-.033V9.431H84.57v11.285h2.268v-3.96h.03c.277.41.632.718 1.063.928.43.21.901.316 1.412.316.607 0 1.136-.12 1.588-.356.452-.237.83-.555 1.134-.954.303-.4.528-.857.678-1.374a5.856 5.856 0 0 0 .224-1.617c0-.593-.076-1.16-.223-1.706a4.215 4.215 0 0 0-.688-1.43Zm-14.908 2.764 1.485-4.236h.031l1.437 4.236h-2.953Zm.24-7.081-4.31 11.543H75.6l.893-2.57h4.263l.861 2.57h2.603L79.957 6.246h-2.57Zm-4.502 7.882a2.07 2.07 0 0 0-.59-.664 3.203 3.203 0 0 0-.838-.428c-.318-.108-.64-.2-.967-.274a36.405 36.405 0 0 0-.94-.21 7.395 7.395 0 0 1-.823-.219 1.702 1.702 0 0 1-.582-.316.63.63 0 0 1-.223-.5c0-.173.041-.31.127-.413a.855.855 0 0 1 .311-.235c.123-.053.258-.088.407-.105a3.94 3.94 0 0 1 .415-.023c.404 0 .756.078 1.054.234.297.156.463.455.494.897h2.155c-.043-.517-.173-.945-.39-1.286a2.599 2.599 0 0 0-.823-.815 3.41 3.41 0 0 0-1.126-.437 6.442 6.442 0 0 0-1.3-.129c-.447 0-.884.04-1.308.12-.427.082-.81.222-1.15.421-.34.2-.614.471-.822.817-.208.344-.312.787-.312 1.325 0 .367.075.677.225.93.147.254.345.463.589.63.245.168.525.303.838.404.318.104.64.194.966.268.81.173 1.44.344 1.892.517.452.172.678.431.678.776a.854.854 0 0 1-.143.509 1.09 1.09 0 0 1-.36.323c-.144.081-.303.141-.478.178a2.382 2.382 0 0 1-.503.057c-.224 0-.44-.027-.646-.08a1.664 1.664 0 0 1-.551-.252 1.328 1.328 0 0 1-.392-.436c-.1-.178-.152-.39-.152-.639h-2.154c.021.56.146 1.027.376 1.399.227.372.52.67.877.897.356.226.764.388 1.222.486.461.097.932.145 1.403.145.464 0 .927-.046 1.382-.137a3.473 3.473 0 0 0 1.205-.478c.352-.226.635-.525.854-.897.217-.372.326-.833.326-1.383 0-.388-.074-.713-.223-.977Zm-9.37-7.203H61.25v2.506h-1.372v1.536h1.372v4.93c0 .422.07.76.208 1.02.138.258.327.458.566.598.24.14.516.234.83.282.313.049.648.073.998.073.224 0 .452-.006.687-.015.233-.012.446-.032.638-.066v-1.778a3.943 3.943 0 0 1-.703.065c-.382 0-.638-.065-.766-.194-.127-.13-.191-.388-.191-.777v-4.139h1.66V9.431h-1.66V6.925Zm-6.496 7.63c0 .13-.013.303-.04.518a1.742 1.742 0 0 1-.215.639c-.117.21-.299.391-.543.541-.244.152-.59.227-1.038.227-.18 0-.356-.016-.526-.049a1.263 1.263 0 0 1-.447-.17.866.866 0 0 1-.303-.331 1.094 1.094 0 0 1-.112-.517c0-.215.038-.394.112-.533.072-.137.173-.256.295-.348.122-.092.266-.164.431-.219.165-.053.333-.097.503-.129.18-.031.362-.06.542-.08.174-.021.347-.048.52-.081a3.6 3.6 0 0 0 .462-.122c.144-.049.263-.115.36-.202v.856Zm2.267 1.375v-4.348c0-.508-.111-.914-.336-1.221a2.298 2.298 0 0 0-.86-.72 3.83 3.83 0 0 0-1.167-.347 9.134 9.134 0 0 0-1.26-.089 6.83 6.83 0 0 0-1.365.137c-.453.092-.86.246-1.221.46a2.722 2.722 0 0 0-.894.858c-.235.355-.367.803-.4 1.342h2.267c.043-.453.192-.777.448-.97.255-.195.606-.291 1.053-.291.202 0 .39.014.567.04.175.027.33.08.463.162.133.08.24.193.319.34.08.145.12.342.12.59.01.237-.06.416-.208.54-.15.125-.351.22-.607.284a5.78 5.78 0 0 1-.878.145c-.33.033-.665.077-1.005.13-.341.054-.68.127-1.013.218-.335.091-.634.23-.895.412-.26.184-.473.429-.639.736-.164.307-.247.699-.247 1.172 0 .431.072.803.216 1.115.143.314.343.571.598.776.256.205.554.356.894.454.34.096.708.145 1.102.145.508 0 1.014-.076 1.5-.226.49-.152.916-.415 1.277-.793a3.36 3.36 0 0 0 .16.808h2.299c-.107-.171-.182-.43-.224-.776a8.706 8.706 0 0 1-.064-1.083Zm-9.338-5.78a2.218 2.218 0 0 0-.917-.695c-.39-.166-.887-.25-1.493-.25-.426 0-.862.11-1.31.332-.446.22-.813.573-1.1 1.059h-.048v-4.35h-2.267V17.79h2.267v-4.38c0-.852.138-1.464.415-1.836.276-.371.723-.558 1.34-.558.543 0 .921.17 1.134.51.213.34.32.854.32 1.544v4.72h2.266v-5.14c0-.518-.046-.989-.136-1.416a2.715 2.715 0 0 0-.471-1.083ZM37.977 14.2h-.032l-1.947-7.954H33.65l-1.98 7.857h-.031l-1.804-7.857h-2.505l3.016 11.543h2.538l1.9-7.857h.031l1.932 7.857h2.49l3.065-11.543h-2.458l-1.868 7.955Zm-20.778.182c-.294-.149-1.737-.867-2.006-.966-.269-.1-.464-.15-.66.148s-.758.967-.93 1.165c-.17.199-.342.224-.635.075-.293-.15-1.24-.463-2.36-1.475-.873-.788-1.462-1.761-1.633-2.059-.17-.297-.018-.458.129-.606.132-.133.293-.347.44-.52.147-.174.196-.298.294-.497.098-.198.048-.372-.025-.52-.073-.149-.66-1.612-.905-2.206-.238-.58-.48-.502-.66-.51a11.2 11.2 0 0 0-.562-.011c-.196 0-.514.075-.783.372S5.876 7.788 5.876 9.25c0 1.462 1.052 2.875 1.198 3.074.147.198 2.07 3.2 5.014 4.487.7.306 1.247.488 1.673.625.703.227 1.342.195 1.848.118.564-.085 1.736-.719 1.98-1.413.245-.694.245-1.289.172-1.413-.073-.124-.269-.198-.563-.347Zm-5.355 7.403h-.004a9.655 9.655 0 0 1-4.969-1.378l-.356-.214-3.695.981.986-3.647-.232-.374a9.954 9.954 0 0 1-1.492-5.26c.002-5.45 4.381-9.884 9.766-9.884a9.636 9.636 0 0 1 6.901 2.899 9.888 9.888 0 0 1 2.857 6.993c-.002 5.45-4.382 9.884-9.762 9.884Zm0-21.785C5.37 0 .1 5.335.099 11.892c-.001 2.096.54 4.142 1.567 5.945L0 24l6.226-1.654a11.621 11.621 0 0 0 5.613 1.448h.005c6.473 0 11.742-5.335 11.745-11.893a11.896 11.896 0 0 0-3.437-8.413A11.598 11.598 0 0 0 11.844 0Z" fill="#4B5563"/></svg>
